lib/healthicons/icons/solid/devices/ppe_face_mask.svg

<svg fill="none" height="48" viewBox="0 0 48 48" width="48" xmlns="http://www.w3.org/2000/svg"><path clip-rule="evenodd" d="m23.7059 11.0442c.1916-.0589.3966-.0589.5882 0l13 4c.4196.1291.7059.5168.7059.9558v1h1c2.7614 0 5 2.2386 5 5v4c0 2.7614-2.2386 5-5 5h-2.4564c-1.1224 1.7244-2.83 3.0575-4.8968 3.6934l-7.3527 2.2624c-.1916.0589-.3966.0589-.5882 0l-7.3527-2.2624c-2.0668-.6359-3.7744-1.969-4.8968-3.6934h-2.4564c-2.76142 0-5-2.2386-5-5v-4c0-2.7614 2.23858-5 5-5h1v-1c0-.439.2863-.8267.7059-.9558zm-13.7059 15.0472c0 1.0101.1684 1.99.4823 2.9086h-1.4823c-1.65685 0-3-1.3431-3-3v-4c0-1.6569 1.34315-3 3-3h1zm27.5177 2.9086h1.4823c1.6569 0 3-1.3431 3-3v-4c0-1.6569-1.3431-3-3-3h-1v7.0914c0 1.0101-.1684 1.99-.4823 2.9086zm-7.5177-8h-12v-2h12zm0 6h-12v-2h12z" fill="#333" fill-rule="evenodd"/></svg>

<svg width="48" height="48" viewBox="0 0 48 48" fill="none" xmlns="http://www.w3.org/2000/svg">
<path fill-rule="evenodd" clip-rule="evenodd" d="M23.7059 11.0442C23.8975 10.9853 24.1025 10.9853 24.2941 11.0442L37.2941 15.0442C37.7137 15.1733 38 15.561 38 16V17H39C41.7614 17 44 19.2386 44 22V26C44 28.7614 41.7614 31 39 31H36.5436C35.4212 32.7244 33.7136 34.0575 31.6468 34.6934L24.2941 36.9558C24.1025 37.0147 23.8975 37.0147 23.7059 36.9558L16.3532 34.6934C14.2864 34.0575 12.5788 32.7244 11.4564 31H9C6.23858 31 4 28.7614 4 26V22C4 19.2386 6.23858 17 9 17H10V16C10 15.561 10.2863 15.1733 10.7059 15.0442L23.7059 11.0442ZM10 26.0914C10 27.1015 10.1684 28.0814 10.4823 29H9C7.34315 29 6 27.6569 6 26V22C6 20.3431 7.34315 19 9 19H10V26.0914ZM37.5177 29H39C40.6569 29 42 27.6569 42 26V22C42 20.3431 40.6569 19 39 19H38V26.0914C38 27.1015 37.8316 28.0814 37.5177 29ZM30 21H18V19H30V21ZM30 27H18V25H30V27Z" fill="#333333"/>
</svg>
